X:15683
T:Soldier's Joy
M:4/4
L:1/8
Q:220
K:D
FG|AFDF AFDF|A2 d2 d2 FG|AFDF AFDF|G2 E2 E2 FG|!
AFDF AFDF|A2 d2 d2 e2|fagf egfe|d2 d2 d2:|!
e2|f2 f2 fagf|e2 e2 egfe|f2 f2 fagf|edcB A3 z|!
f2 f2 fagf|e2 e2 egfe|fagf egfe|d2 d2 d2:|!


